src/assets/glass3.svg

<svg width="112" height="145" viewBox="0 0 112 145" fill="none" xmlns="http://www.w3.org/2000/svg">
<g filter="url(#filter0_d_340_60200)">
<path fill-rule="evenodd" clip-rule="evenodd" d="M85.6866 0.431019C84.0705 0.987453 83.1236 1.60677 81.9288 2.88887C78.5627 6.50116 78.6265 11.8387 82.0771 15.2921C83.2571 16.4733 83.3613 16.8527 82.3634 16.3361C81.5405 15.9103 79.5532 15.6746 78.215 15.8443C75.8073 16.1496 73.3409 18.0088 72.2305 20.3559C71.9009 21.0522 71.6313 21.7943 71.6313 22.0051C71.6308 22.8074 71.2252 23.2045 70.4061 23.2045C67.8537 23.2045 58.6671 25.287 53.183 27.1084C47.908 28.8607 39.4322 32.4158 38.4773 33.2767C37.9418 33.7597 38.0158 34.5288 38.6374 34.9363C39.151 35.2731 39.253 35.2431 42.1688 33.8954C51.3366 29.6583 60.9767 26.7035 69.1569 25.6238C70.4449 25.4537 71.5212 25.3146 71.5486 25.3146C71.576 25.3146 71.7114 25.6708 71.8497 26.1059C72.3439 27.6621 73.8634 29.626 75.1164 30.3276C75.416 30.4956 74.8642 31.6179 71.1487 38.3977L66.8331 46.2728L64.752 47.4376C57.6061 51.4365 47.5738 55.3568 39.2047 57.4205L35.7681 58.2681L34.4278 57.3941C32.9107 56.4047 30.0745 55.3317 26.5125 54.3993C22.6951 53.4001 19.7862 53.554 17.1626 54.8934L16.3387 55.3142L16.4854 54.5048C17.1291 50.9551 21.0264 46.7077 28.41 41.5088C30.107 40.3141 30.4199 39.7374 29.7646 39.013C29.5635 38.7904 29.2354 38.6083 29.0357 38.6083C28.8361 38.6083 27.6638 39.3152 26.4309 40.1791C18.4455 45.774 14.1375 51.152 14.3073 55.3142L14.3577 56.5492L12.7009 58.0765C8.56182 61.8922 5.08895 67.0373 4.25342 70.5916C3.63019 73.2425 4.18026 76.3182 5.64197 78.3551C8.06931 81.738 13.0235 82.2406 16.1563 79.4215C17.4059 78.297 18.3774 76.7984 20.2513 73.1043C22.176 69.3103 23.3782 68.0092 25.7235 67.181C26.5635 66.8843 26.5968 66.8926 28.7039 67.9126C29.8757 68.48 31.9731 69.3439 33.3646 69.8321C38.0352 71.4717 39.1963 72.1843 45.3235 77.1704C55.3736 85.349 59.1456 87.3551 63.979 87.0924C64.9988 87.0369 65.9685 86.9539 66.134 86.908C66.3543 86.8465 67.9157 90.3738 71.9815 100.118C75.032 107.429 77.5296 113.479 77.5313 113.562C77.5329 113.644 76.4195 114.281 75.0571 114.977C66.084 119.561 60.2207 125.157 59.8751 129.466C59.7307 131.266 60.074 132.107 61.627 133.754C63.9582 136.227 66.2655 137.009 71.2094 137C77.667 136.988 84.832 135.061 92.1874 131.358C99.7382 127.556 105.301 122.867 107.346 118.581C107.967 117.28 108 117.079 108 114.643C108 112.125 107.988 112.059 107.359 111.161C105.95 109.149 103.326 108.242 98.9196 108.242C94.6605 108.242 90.0856 109.094 84.8082 110.87C83.6486 111.26 82.6421 111.517 82.5713 111.44C82.4041 111.26 71.6311 85.3155 71.6311 85.0933C71.6311 85.0004 72.0793 84.6871 72.627 84.3971C74.0107 83.6647 76.1284 81.6276 76.9827 80.2071C78.9474 76.9402 79.5161 73.7493 79.8633 64.0414C79.9839 60.6722 80.177 57.2985 80.2924 56.5442C80.4077 55.7898 81.0745 53.4159 81.7743 51.2689C84.8512 41.8268 85.7374 37.92 85.9864 32.7C86.0886 30.553 86.1219 28.6359 86.0599 28.4399C85.9982 28.2441 86.206 27.5794 86.5221 26.9628C86.9781 26.0736 87.115 25.4718 87.185 24.0486C87.2885 21.9446 86.8371 20.4475 85.6161 18.8467C84.6994 17.6446 84.8826 17.3256 86.2676 17.7136C86.8537 17.8778 87.9484 17.9466 89.0995 17.8915C90.6677 17.8166 91.1965 17.6929 92.3196 17.139C96.792 14.9329 98.6997 9.66125 96.6485 5.17707C94.8296 1.201 89.789 -0.981485 85.6866 0.431019ZM85.9678 2.68208C84.5286 3.18935 82.5175 5.29481 82.0872 6.74466C80.9103 10.7108 82.9767 14.536 86.8295 15.524C89.9481 16.3235 93.0103 14.9116 94.5564 11.9613C95.0522 11.0147 95.1336 10.6089 95.1362 9.06683C95.1387 7.52498 95.056 7.10401 94.5475 6.06753C93.0554 3.02645 89.2507 1.52532 85.9678 2.68208ZM21.1512 17.4167C20.969 17.5992 20.8191 17.8603 20.8183 17.997C20.8138 18.5965 23.4476 27.3557 23.732 27.6885C24.3063 28.3601 25.6691 27.9504 25.6691 27.1061C25.6691 26.5727 23.1031 18.0401 22.7982 17.56C22.4455 17.0044 21.6338 16.9337 21.1512 17.4167ZM77.6253 18.3129C73.5935 19.7079 72.4234 24.6508 75.416 27.6459C78.1667 30.3989 82.5926 29.6619 84.3855 26.1521C85.5687 23.8363 85.2037 21.5684 83.3497 19.7125C81.6623 18.024 79.7861 17.5653 77.6253 18.3129ZM15.6872 25.9116C15.0258 26.6429 15.282 27.074 17.9397 29.7039C20.5688 32.3052 21.1847 32.6726 21.8319 32.0248C22.5079 31.3483 22.1322 30.7205 19.4835 28.0998C16.8149 25.4594 16.3425 25.187 15.6872 25.9116ZM83.1123 30.5905C82.169 31.19 80.0261 31.6783 78.6645 31.6042L77.4737 31.5394L74.1516 37.606C72.3245 40.9427 70.8718 43.6725 70.9235 43.6725C71.1622 43.6725 74.3774 41.377 76.2479 39.8712C79.4416 37.3 82.0066 34.4712 83.044 32.3765C83.5192 31.4162 83.8736 30.53 83.8312 30.4067C83.7842 30.2706 83.5027 30.3426 83.1123 30.5905ZM12.5727 34.57C9.57488 34.9198 7.67631 35.2342 7.46 35.4161C7.02336 35.7835 7.01682 36.5801 7.44693 37.0107C7.85489 37.4188 7.26582 37.4454 13.6337 36.7326C18.1438 36.2279 19.0367 36.0719 19.2735 35.7476C19.9146 34.87 19.2806 33.9498 18.0624 33.9897C17.6659 34.0028 15.1953 34.2638 12.5727 34.57ZM80.9078 38.5815C78.0731 41.4744 74.969 43.9194 70.929 46.4414L68.435 47.9983L65.9634 52.535C64.6039 55.0302 63.154 57.6889 62.7414 58.4433C62.3288 59.1976 61.0666 61.5082 59.9363 63.5776L57.8811 67.3405L58.4602 67.9455C59.0864 68.5996 61.5496 69.8851 62.8315 70.2269C63.612 70.435 63.6366 70.423 64.3526 69.4846C65.2407 68.3205 65.8472 66.7527 66.3796 64.2461C67.045 61.1132 67.2316 60.5112 67.9982 59.0231C69.4455 56.2135 72.4449 54.1214 77.1977 52.6059C78.8365 52.0834 79.1085 51.9271 79.3387 51.3744C79.776 50.3249 81.9 43.2991 82.4964 40.9294C82.9801 39.0071 83.6543 35.8392 83.5714 35.8784C83.5558 35.8858 82.3573 37.1023 80.9078 38.5815ZM61.6164 51.5671C55.3087 54.6919 47.6423 57.5722 41.1743 59.2472C38.1014 60.0432 38.0337 60.0727 38.5389 60.4004C39.35 60.9271 40.9808 61.2546 42.0558 61.1071C42.5932 61.0334 44.2257 60.5793 45.6834 60.0978C50.0355 58.6606 52.7633 58.8904 54.1984 60.8152C54.4805 61.1934 54.8786 62.0252 55.0829 62.6635C55.2874 63.3018 55.6386 64.1908 55.8638 64.639C56.2412 65.391 56.2931 65.4235 56.5353 65.061C57.0419 64.3026 64.7146 50.1852 64.6419 50.1453C64.6012 50.1231 63.2398 50.7629 61.6164 51.5671ZM6.53443 71.137C5.87663 71.7954 6.64892 73.9766 7.99299 75.2555C9.1452 76.3521 10.2856 76.6957 12.7726 76.6957C14.6853 76.6957 14.987 76.6459 15.2499 76.2861C15.641 75.7506 15.6275 75.4328 15.1949 74.9998C14.9067 74.7111 14.6094 74.6712 13.5997 74.7856C11.6836 75.0027 10.1199 74.598 9.22405 73.6531C8.81819 73.2252 8.34382 72.4527 8.16988 71.9368C7.92046 71.1965 7.74209 70.9853 7.32506 70.9366C7.03432 70.9026 6.67865 70.9927 6.53443 71.137ZM71.3148 76.0291C69.7268 77.7075 68.119 78.7786 66.1243 79.4871C64.8489 79.94 64.0838 80.0566 61.8852 80.1335C58.981 80.2347 58.6888 80.3514 58.8077 81.3639C58.9005 82.1556 59.6531 82.3423 62.1273 82.1872C66.683 81.9017 69.991 80.4242 72.7491 77.4427C73.9481 76.1464 74.2098 75.4573 73.6972 74.9443C73.1782 74.4248 72.5712 74.7012 71.3148 76.0291ZM32.766 81.3742C32.7041 81.4362 31.9337 81.5677 31.0536 81.6665C27.8863 82.022 25.5835 83.8859 23.5083 87.7737C20.8577 92.7394 20.4598 95.1834 22.0529 96.7109C23.1775 97.7893 26.974 97.8706 28.4102 96.847C29.5702 96.0204 29.7593 95.3878 30.0954 91.2123C30.4608 86.6756 31.2668 84.3121 33.0239 82.6276C33.3678 82.2978 33.6014 81.9038 33.5432 81.7521C33.4236 81.44 32.9368 81.2035 32.766 81.3742ZM40.4276 98.0181C40.2536 98.055 39.7664 98.1413 39.3447 98.2097C38.225 98.3918 36.7508 99.7878 35.9073 101.465C34.6007 104.062 34.467 105.23 35.3728 106.137C35.699 106.463 36.0759 106.554 37.1126 106.554C39.2549 106.554 39.6367 106.049 39.8941 102.878C40.0474 100.993 40.4094 99.9585 41.2087 99.1231C41.6662 98.6452 41.7124 98.4969 41.488 98.2263C41.2258 97.91 41.0763 97.8807 40.4276 98.0181ZM95.6662 110.582C93.2241 110.897 89.2319 111.814 86.4609 112.695C84.9722 113.169 83.6933 113.619 83.6189 113.695C83.5445 113.771 83.7258 114.387 84.0214 115.063C84.4806 116.112 84.6235 116.273 85.0001 116.165C85.2423 116.094 86.2472 115.981 87.2328 115.913C90.0162 115.719 91.5724 116.337 92.2231 117.895C92.4851 118.523 92.483 118.756 92.2051 119.712C91.6352 121.674 89.5608 123.588 86.325 125.136C80.7872 127.785 75.1404 127.22 75.1467 124.016C75.1499 122.387 76.6744 120.24 78.7672 118.918L79.6227 118.378L79.0862 117.161C78.791 116.491 78.5188 115.912 78.4813 115.873C78.3596 115.748 73.8328 118.141 71.9132 119.345C66.5717 122.695 63.1639 126.049 62.2491 128.856C61.6289 130.759 62.298 131.875 64.5274 132.653C65.4346 132.97 66.2727 133.033 69.4173 133.022C72.7322 133.01 73.5562 132.934 75.9306 132.425C79.4378 131.673 83.8333 130.252 87.5491 128.669C97.8475 124.281 105.786 117.772 105.786 113.715C105.786 112.474 105.301 111.824 103.935 111.236C102.017 110.41 98.9054 110.164 95.6662 110.582ZM24.7786 111.413C23.0523 111.704 21.9593 112.748 20.6905 115.318C19.6741 117.376 19.6049 118.599 20.4628 119.338C21.5644 120.286 24.0181 119.913 24.5642 118.714C24.6972 118.422 24.8671 117.442 24.9418 116.536C25.1298 114.253 25.3761 113.414 26.1018 112.587C26.4893 112.145 26.678 111.745 26.5974 111.535C26.457 111.169 26.2941 111.158 24.7786 111.413ZM70.0985 122.609C68.9227 123.829 68.0519 125.519 68.049 126.587C68.0443 128.185 69.801 129.552 72.366 129.945C73.8672 130.175 74.5214 129.977 74.7073 129.236C74.9078 128.436 74.3367 127.929 73.0373 127.753C71.44 127.536 70.3661 127.059 70.3661 126.566C70.3661 125.979 70.9064 125.015 71.7748 124.053C72.6127 123.125 72.755 122.263 72.1442 121.816C71.514 121.355 71.1822 121.483 70.0985 122.609Z" fill="#E1017D"/>
</g>
<defs>
<filter id="filter0_d_340_60200" x="0" y="0" width="112" height="145" filterUnits="userSpaceOnUse" color-interpolation-filters="sRGB">
<feFlood flood-opacity="0" result="BackgroundImageFix"/>
<feColorMatrix in="SourceAlpha" type="matrix" values="0 0 0 0 0 0 0 0 0 0 0 0 0 0 0 0 0 0 127 0" result="hardAlpha"/>
<feOffset dy="4"/>
<feGaussianBlur stdDeviation="2"/>
<feComposite in2="hardAlpha" operator="out"/>
<feColorMatrix type="matrix" values="0 0 0 0 0 0 0 0 0 0 0 0 0 0 0 0 0 0 0.86 0"/>
<feBlend mode="normal" in2="BackgroundImageFix" result="effect1_dropShadow_340_60200"/>
<feBlend mode="normal" in="SourceGraphic" in2="effect1_dropShadow_340_60200" result="shape"/>
</filter>
</defs>
</svg>

<svg xmlns="http://www.w3.org/2000/svg" width="112" height="145" fill="none" viewBox="0 0 112 145"><g filter="url(#a)"><path fill="#e1017d" fill-rule="evenodd" d="M85.687.431c-1.617.556-2.563 1.176-3.758 2.458-3.366 3.612-3.303 8.95.148 12.403 1.18 1.181 1.284 1.56.286 1.044-.823-.426-2.81-.661-4.148-.492-2.408.306-4.874 2.165-5.984 4.512-.33.696-.6 1.438-.6 1.65q.002 1.2-1.225 1.198c-2.552 0-11.739 2.083-17.223 3.904-5.275 1.753-13.75 5.308-14.706 6.169-.535.483-.461 1.252.16 1.66.514.336.616.306 3.532-1.042 9.168-4.237 18.808-7.192 26.988-8.271 1.288-.17 2.364-.31 2.392-.31.027 0 .162.357.3.792.495 1.556 2.014 3.52 3.267 4.222.3.168-.252 1.29-3.967 8.07l-4.316 7.875-2.081 1.165c-7.146 3.999-17.178 7.919-25.547 9.982l-3.437.848-1.34-.874c-1.517-.99-4.353-2.062-7.915-2.995-3.818-.999-6.727-.845-9.35.494l-.824.421.146-.81c.644-3.549 4.541-7.796 11.925-12.995 1.697-1.195 2.01-1.772 1.355-2.496-.201-.223-.53-.405-.73-.405s-1.371.707-2.604 1.571c-7.986 5.595-12.294 10.973-12.124 15.135l.05 1.235-1.656 1.528c-4.14 3.815-7.612 8.96-8.448 12.515-.623 2.65-.073 5.726 1.389 7.763 2.427 3.383 7.382 3.886 10.514 1.066 1.25-1.124 2.221-2.623 4.095-6.317 1.925-3.794 3.127-5.095 5.473-5.923.84-.297.873-.288 2.98.732 1.172.567 3.27 1.43 4.66 1.92 4.671 1.639 5.832 2.351 11.96 7.337 10.05 8.179 13.822 10.185 18.655 9.922 1.02-.055 1.99-.138 2.155-.184.22-.061 1.782 3.466 5.847 13.21 3.051 7.311 5.549 13.361 5.55 13.444.002.082-1.112.719-2.474 1.415-8.973 4.584-14.836 10.18-15.182 14.489-.144 1.8.199 2.641 1.752 4.288 2.331 2.473 4.639 3.255 9.582 3.246 6.458-.012 13.623-1.939 20.978-5.642 7.551-3.802 13.114-8.491 15.159-12.777.621-1.301.654-1.502.654-3.938 0-2.518-.012-2.584-.641-3.482-1.409-2.012-4.033-2.919-8.44-2.919-4.258 0-8.833.852-14.11 2.628-1.16.39-2.167.647-2.238.57-.167-.18-10.94-26.124-10.94-26.347 0-.093.448-.406.996-.696 1.384-.732 3.501-2.77 4.356-4.19 1.964-3.267 2.533-6.458 2.88-16.166.12-3.369.314-6.742.43-7.497s.781-3.128 1.481-5.275c3.077-9.442 3.963-13.349 4.212-18.569.103-2.147.136-4.064.074-4.26s.146-.86.462-1.477c.456-.89.593-1.491.663-2.914.103-2.104-.348-3.601-1.569-5.202-.917-1.202-.733-1.521.652-1.133.586.164 1.68.233 2.832.178 1.568-.075 2.097-.2 3.22-.753 4.472-2.206 6.38-7.478 4.329-11.962-1.82-3.976-6.86-6.158-10.962-4.746m.28 2.251c-1.438.507-3.45 2.613-3.88 4.063-1.177 3.966.89 7.791 4.742 8.779 3.12.8 6.181-.612 7.727-3.563.496-.946.578-1.352.58-2.894s-.08-1.963-.588-3c-1.493-3.04-5.297-4.542-8.58-3.385M21.152 17.417c-.182.182-.332.443-.333.58-.004.6 2.63 9.359 2.914 9.692.574.671 1.937.261 1.937-.583 0-.533-2.566-9.066-2.87-9.546-.354-.556-1.165-.626-1.648-.143m56.474.896c-4.031 1.395-5.202 6.338-2.209 9.333 2.75 2.753 7.177 2.016 8.97-1.494 1.183-2.316.818-4.584-1.036-6.44-1.688-1.688-3.564-2.147-5.725-1.4m-61.938 7.599c-.661.73-.405 1.162 2.253 3.792 2.629 2.601 3.245 2.969 3.892 2.32.676-.676.3-1.303-2.349-3.924-2.668-2.64-3.14-2.913-3.796-2.188m67.425 4.679c-.943.599-3.086 1.087-4.447 1.013l-1.191-.065-3.322 6.067c-1.828 3.337-3.28 6.066-3.228 6.066.238 0 3.453-2.295 5.324-3.8 3.194-2.572 5.759-5.4 6.796-7.495.475-.96.83-1.847.787-1.97-.047-.136-.328-.064-.719.183m-70.54 3.979c-2.997.35-4.896.664-5.112.846-.437.367-.443 1.164-.013 1.595.408.408-.181.434 6.187-.278 4.51-.505 5.403-.661 5.64-.985.64-.878.007-1.798-1.212-1.758-.396.013-2.867.274-5.49.58m68.336 4.011c-2.835 2.893-5.939 5.338-9.979 7.86l-2.494 1.557-2.472 4.537a6764 6764 0 0 1-6.027 11.043l-2.055 3.763.58.605c.625.654 3.089 1.94 4.37 2.28.781.209.806.197 1.522-.741.888-1.165 1.494-2.732 2.027-5.239.665-3.133.852-3.735 1.618-5.223 1.447-2.81 4.447-4.902 9.2-6.417 1.639-.523 1.91-.679 2.14-1.232.438-1.05 2.562-8.075 3.158-10.445.484-1.922 1.158-5.09 1.075-5.05a327 327 0 0 0-2.663 2.703M61.616 51.567c-6.307 3.125-13.974 6.005-20.442 7.68-3.073.796-3.14.826-2.635 1.153.811.527 2.442.855 3.517.707.537-.074 2.17-.528 3.627-1.01 4.352-1.436 7.08-1.207 8.515.718.282.378.68 1.21.885 1.849.204.638.556 1.527.78 1.975.378.752.43.785.672.422.507-.758 8.18-14.876 8.107-14.916-.04-.022-1.402.618-3.026 1.422M6.534 71.137c-.657.658.115 2.84 1.459 4.118 1.152 1.097 2.293 1.44 4.78 1.44 1.912 0 2.214-.05 2.477-.409.391-.535.377-.853-.055-1.286-.288-.289-.586-.329-1.595-.214-1.916.217-3.48-.188-4.376-1.133-.406-.428-.88-1.2-1.054-1.716-.25-.74-.428-.952-.845-1-.29-.034-.646.056-.79.2m64.78 4.892c-1.587 1.678-3.195 2.75-5.19 3.458-1.275.453-2.04.57-4.239.647-2.904.1-3.196.217-3.077 1.23.093.792.845.978 3.32.823 4.555-.285 7.863-1.763 10.621-4.744 1.2-1.297 1.46-1.986.948-2.499-.519-.52-1.126-.243-2.382 1.085m-38.548 5.345c-.062.062-.832.194-1.712.293-3.168.355-5.47 2.219-7.546 6.107-2.65 4.965-3.048 7.41-1.455 8.937 1.124 1.078 4.921 1.16 6.357.136 1.16-.827 1.35-1.46 1.685-5.635.366-4.536 1.172-6.9 2.929-8.584.344-.33.577-.724.52-.876-.12-.312-.607-.548-.778-.378m7.662 16.644a34 34 0 0 1-1.083.192c-1.12.182-2.594 1.578-3.438 3.255-1.306 2.597-1.44 3.765-.534 4.672.326.326.703.417 1.74.417 2.142 0 2.524-.505 2.781-3.676.153-1.885.515-2.92 1.315-3.755.457-.478.503-.626.279-.897-.262-.316-.412-.345-1.06-.208m55.238 12.564c-2.442.315-6.434 1.232-9.205 2.113-1.489.474-2.768.924-2.842 1s.107.692.402 1.368c.46 1.049.603 1.21.98 1.102.241-.071 1.246-.184 2.232-.252 2.783-.194 4.34.424 4.99 1.982.262.628.26.861-.018 1.817-.57 1.962-2.644 3.876-5.88 5.424-5.538 2.649-11.185 2.084-11.178-1.12.003-1.629 1.527-3.776 3.62-5.098l.856-.54-.537-1.217c-.295-.67-.567-1.249-.605-1.288-.121-.125-4.648 2.268-6.568 3.472-5.341 3.35-8.75 6.704-9.664 9.511-.62 1.903.049 3.019 2.278 3.797.908.317 1.746.38 4.89.369 3.315-.012 4.14-.088 6.514-.597 3.507-.752 7.902-2.173 11.618-3.756 10.298-4.388 18.237-10.897 18.237-14.954 0-1.241-.485-1.891-1.851-2.479-1.918-.826-5.03-1.072-8.269-.654m-70.887.831c-1.727.291-2.82 1.335-4.088 3.905-1.017 2.058-1.086 3.281-.228 4.02 1.101.948 3.555.575 4.101-.624.133-.292.303-1.272.378-2.178.188-2.283.434-3.122 1.16-3.949.387-.442.576-.842.495-1.052-.14-.366-.303-.377-1.818-.122m45.32 11.196c-1.176 1.22-2.047 2.91-2.05 3.978-.005 1.598 1.752 2.965 4.317 3.358 1.501.23 2.155.032 2.341-.709.2-.8-.37-1.307-1.67-1.483-1.597-.217-2.67-.694-2.67-1.187 0-.587.54-1.551 1.408-2.513.838-.928.98-1.79.37-2.237-.631-.461-.963-.333-2.046.793" clip-rule="evenodd"/></g><defs><filter id="a" width="112" height="145" x="0" y="0" color-interpolation-filters="sRGB" filterUnits="userSpaceOnUse"><feFlood flood-opacity="0" result="BackgroundImageFix"/><feColorMatrix in="SourceAlpha" result="hardAlpha" values="0 0 0 0 0 0 0 0 0 0 0 0 0 0 0 0 0 0 127 0"/><feOffset dy="4"/><feGaussianBlur stdDeviation="2"/><feComposite in2="hardAlpha" operator="out"/><feColorMatrix values="0 0 0 0 0 0 0 0 0 0 0 0 0 0 0 0 0 0 0.86 0"/><feBlend in2="BackgroundImageFix" result="effect1_dropShadow_340_60200"/><feBlend in="SourceGraphic" in2="effect1_dropShadow_340_60200" result="shape"/></filter></defs></svg>
